; generated by PrusaSlicer 2.7.1+win64 on 2024-02-22 at 21:08:35 UTC


;
;
; 

; external perimeters extrusion width = 0.45mm
; perimeters extrusion width = 0.45mm
; infill extrusion width = 0.45mm
; solid infill extrusion width = 0.45mm
; top infill extrusion width = 0.40mm
; support material extrusion width = 0.35mm
; first layer extrusion width = 0.42mm

M73 P0 R19
M73 Q0 S20
M201 X1000 Y1000 Z200 E5000 ; sets maximum accelerations, mm/sec^2
M203 X200 Y200 Z12 E120 ; sets maximum feedrates, mm / sec
M204 S1250 T1250 ; sets acceleration (S) and retract acceleration (R), mm/sec^2
M205 X8.00 Y8.00 Z0.40 E4.50 ; sets the jerk limits, mm/sec
M205 S0 T0 ; sets the minimum extruding and travel feed rate, mm/sec

; printing object Furn2 v6.stl_1 id:0 copy 0
; stop printing object Furn2 v6.stl_1 id:0 copy 0

;TYPE:Custom
M862.3 P "MK3" ; printer model check
M862.1 P0.4 ; nozzle diameter check
M115 U3.13.2 ; tell printer latest fw version
G90 ; use absolute coordinates
M83 ; extruder relative mode
M104 S215 ; set extruder temp
M140 S60 ; set bed temp
M190 S60 ; wait for bed temp
M109 S215 ; wait for extruder temp
G28 W ; home all without mesh bed level
G80 X82.5788 Y82.5057 W84.8424 H44.9886 ; mesh bed levelling

G1 Z0.2 F720
G1 Y-3 F1000 ; go outside print area
G92 E0
G1 X60 E9 F1000 ; intro line
G1 X100 E12.5 F1000 ; intro line

G92 E0
M221 S95

; Don't change E values below. Excessive value can damage the printer.

M907 E538 ; set extruder motor current
G21 ; set units to millimeters
G90 ; use absolute coordinates
M83 ; use relative distances for extrusion

M900 K0.05 ; Filament gcode LA 1.5
M900 K30 ; Filament gcode LA 1.0




M107
;LAYER_CHANGE
;Z:0.2
;HEIGHT:0.2
;BEFORE_LAYER_CHANGE
G92 E0.0
;0.2


G1 E-.8 F2100
G1 Z.2 F720
;AFTER_LAYER_CHANGE
;0.2
G1 X84.928 Y84.888 F10800
G1 Z.2 F720
G1 E.8 F2100
M204 S800
;TYPE:Skirt/Brim
;WIDTH:0.42
G1 F1200
G1 X85.361 Y84.454 E.01922
G1 X86.72 Y83.535 E.05144
G1 X87.827 Y83.065 E.03771
G1 X88.529 Y82.872 E.02283
G1 X90.125 Y82.694 E.05035
G1 X159.996 Y82.697 E2.19076
G1 X161.236 Y82.823 E.03908
G1 X162.628 Y83.233 E.0455
G1 X163.89 Y83.894 E.04467
G1 X164.991 Y84.775 E.04421
G1 X165.904 Y85.846 E.04413
G1 X166.602 Y87.082 E.04451
G1 X167.055 Y88.456 E.04536
G1 X167.204 Y89.424 E.03071
G1 X167.233 Y119.944 E.95693
G1 X167.179 Y120.813 E.0273
M73 P1 R19
M73 Q1 S20
G1 X167.055 Y121.541 E.02315
G1 X166.693 Y122.7 E.03807
G1 X165.904 Y124.151 E.05179
G1 X165.473 Y124.709 E.02211
G1 X164.637 Y125.545 E.03707
G1 X163.279 Y126.465 E.05143
G1 X162.172 Y126.934 E.0377
G1 X161.471 Y127.128 E.02281
G1 X159.875 Y127.306 E.05035
G1 X89.988 Y127.302 E2.19126
G1 X88.764 Y127.173 E.03859
G1 X88.054 Y127.002 E.0229
G1 X87.157 Y126.673 E.02996
G1 X86.11 Y126.102 E.03739
G1 X85.363 Y125.544 E.02923
G1 X84.528 Y124.708 E.03705
G1 X83.608 Y123.35 E.05143
G1 X83.139 Y122.243 E.0377
G1 X82.945 Y121.541 E.02284
G1 X82.767 Y119.944 E.05038
G1 X82.796 Y89.424 E.95693
G1 X83.138 Y87.756 E.05339
G1 X83.397 Y87.084 E.02258
G1 X83.967 Y86.037 E.03738
G1 X84.526 Y85.29 E.02925
G1 X84.885 Y84.93 E.01594
M204 S1000
; printing object Furn2 v6.stl_1 id:0 copy 0
;WIPE_START
G1 F8640
G1 X84.928 Y84.888 E-.01388
G1 X85.361 Y84.454 E-.14156
G1 X86.72 Y83.535 E-.37881
G1 X87.779 Y83.086 E-.26575
;WIPE_END
G1 Z.6 F720
G1 X164.062 Y105.12 F10800
G1 Z.2 F720
G1 E.8 F2100
M204 S800
;TYPE:Perimeter
;WIDTH:0.463987
G1 F1200
G1 X164.069 Y105.184 E.00225
;WIDTH:0.419999
G1 X164.069 Y119.91 E.46172
G1 X163.98 Y120.787 E.02764
G1 X163.735 Y121.572 E.02578
G1 X163.347 Y122.284 E.02542
G1 X162.833 Y122.906 E.0253
G1 X162.211 Y123.42 E.0253
G1 X161.5 Y123.808 E.0254
G1 X160.716 Y124.053 E.02575
G1 X159.84 Y124.142 E.02761
G1 X90.214 Y124.142 E2.18307
G1 X89.712 Y124.116 E.01576
M73 P2 R19
M73 Q2 S20
G1 X88.884 Y123.946 E.0265
G1 X88.134 Y123.628 E.02554
G1 X87.465 Y123.176 E.02531
G1 X86.895 Y122.606 E.02527
G1 X86.442 Y121.937 E.02533
G1 X86.124 Y121.187 E.02554
G1 X85.961 Y120.392 E.02545
G1 X85.932 Y119.924 E.0147
G1 X85.932 Y105.182 E.46222
;WIDTH:0.462238
G1 X85.953 Y104.93 E.00882
;WIDTH:0.504477
G1 X85.974 Y104.679 E.00967
;WIDTH:0.546716
G1 X85.995 Y104.427 E.01059
;WIDTH:0.588955
G1 X86.016 Y104.175 E.01148
G1 X86.015 Y90.104 E.63887
;WIDTH:0.586997
G1 X86.03 Y89.911 E.00876
;WIDTH:0.585667
G1 X86.132 Y89.13 E.03555
G1 X86.389 Y88.37 E.03621
;WIDTH:0.585103
G1 X86.79 Y87.676 E.03613
;WIDTH:0.583598
G1 X87.317 Y87.074 E.03597
;WIDTH:0.582676
G1 X87.95 Y86.584 E.03593
;WIDTH:0.582524
G1 X88.668 Y86.224 E.03604
G1 X89.434 Y86.014 E.03564
;WIDTH:0.585237
G1 X90.177 Y85.941 E.03367
;WIDTH:0.587196
G1 X101.264 Y85.942 E.50176
G1 X101.469 Y85.921 E.00933
;WIDTH:0.545397
G1 X101.675 Y85.9 E.00865
;WIDTH:0.503598
G1 X101.88 Y85.879 E.00789
;WIDTH:0.461799
G1 X102.085 Y85.858 E.00718
;WIDTH:0.462242
G1 X102.29 Y85.88 E.00719
;WIDTH:0.504484
G1 X102.494 Y85.901 E.00787
;WIDTH:0.546726
G1 X102.699 Y85.922 E.00863
;WIDTH:0.588968
G1 X102.903 Y85.943 E.00931
G1 X117.399 Y85.943 E.65818
;WIDTH:0.588678
G1 X117.607 Y85.922 E.00949
;WIDTH:0.546509
G1 X117.815 Y85.901 E.00875
;WIDTH:0.504339
G1 X118.023 Y85.88 E.00802
;WIDTH:0.46226
G1 X118.231 Y85.858 E.00729
G1 X118.439 Y85.88 E.00729
;WIDTH:0.504521
G1 X118.647 Y85.901 E.00802
;WIDTH:0.546782
G1 X118.855 Y85.922 E.00876
;WIDTH:0.589043
G1 X119.063 Y85.943 E.00949
G1 X131.934 Y85.943 E.58448
;WIDTH:0.588922
G1 X132.14 Y85.922 E.0094
;WIDTH:0.546692
G1 X132.346 Y85.901 E.00867
;WIDTH:0.504461
G1 X132.551 Y85.88 E.00791
;WIDTH:0.462176
G1 X132.757 Y85.858 E.00722
G1 X132.963 Y85.88 E.00722
;WIDTH:0.504352
G1 X133.169 Y85.901 E.00794
;WIDTH:0.546528
G1 X133.374 Y85.922 E.00863
;WIDTH:0.58871
G1 X133.58 Y85.943 E.0094
G1 X149.25 Y85.943 E.71115
G1 X149.456 Y85.922 E.0094
;WIDTH:0.546533
G1 X149.662 Y85.901 E.00867
;WIDTH:0.504355
G1 X149.868 Y85.88 E.00794
;WIDTH:0.462177
G1 X150.074 Y85.858 E.00722
;WIDTH:0.461784
G1 X150.281 Y85.879 E.00725
;WIDTH:0.503568
G1 X150.488 Y85.9 E.00797
;WIDTH:0.545353
G1 X150.695 Y85.921 E.00869
;WIDTH:0.587137
G1 X150.901 Y85.942 E.00937
G1 X159.823 Y85.941 E.40374
;WIDTH:0.585236
G1 X160.033 Y85.958 E.0095
;WIDTH:0.590601
G1 X160.672 Y86.028 E.02927
G1 X160.944 Y86.101 E.01283
;WIDTH:0.595623
G1 X161.44 Y86.265 E.02401
G1 X161.728 Y86.406 E.01474
;WIDTH:0.59442
G1 X162.183 Y86.668 E.02408
G1 X162.791 Y87.172 E.03622
;WIDTH:0.587879
G1 X163.231 Y87.703 E.03125
;WIDTH:0.584814
G1 X163.38 Y87.943 E.01273
;WIDTH:0.5811
G1 X163.727 Y88.671 E.03609
;WIDTH:0.594588
G1 X163.897 Y89.255 E.0279
G1 X163.985 Y90.104 E.03915
;WIDTH:0.588956
G1 X163.984 Y104.179 E.63905
;WIDTH:0.595949
G1 X164.003 Y104.55 E.01708
;WIDTH:0.551962
G1 X164.025 Y104.762 E.00902
;WIDTH:0.507974
G1 X164.047 Y104.973 E.0082
;WIDTH:0.463987
G1 X164.056 Y105.06 E.00306
M204 S1000
;WIPE_START
G1 F8640
G1 X164.062 Y105.12 E-.01392
G1 X164.069 Y105.184 E-.01487
;WIPE_END
G1 E-.77121 F2100
G1 Z.6 F720
G1 X160.516 Y124.452 F10800
G1 Z.2 F720
G1 E.8 F2100
M204 S800
;TYPE:External perimeter
;WIDTH:0.419999
G1 F1200
G1 X159.86 Y124.519 E.02068
G1 X90.205 Y124.519 E2.18398
G1 X89.664 Y124.491 E.01699
M73 P3 R18
G1 X88.771 Y124.308 E.02858
G1 X87.953 Y123.961 E.02786
G1 X87.224 Y123.468 E.02759
G1 X86.603 Y122.847 E.02754
G1 X86.109 Y122.118 E.02761
G1 X85.762 Y121.3 E.02786
G1 X85.591 Y120.468 E.02663
G1 X85.554 Y119.934 E.01678
G1 X85.554 Y90.067 E.93646
G1 X85.649 Y89.135 E.02937
M73 Q3 S20
G1 X85.916 Y88.279 E.02811
G1 X86.338 Y87.503 E.0277
G1 X86.897 Y86.826 E.02753
G1 X87.575 Y86.266 E.02757
G1 X88.351 Y85.843 E.02771
G1 X89.207 Y85.576 E.02811
G1 X90.14 Y85.481 E.0294
G1 X159.86 Y85.481 E2.18602
G1 X160.792 Y85.576 E.02937
G1 X161.648 Y85.843 E.02811
G1 X162.424 Y86.265 E.0277
G1 X163.101 Y86.824 E.02753
G1 X163.661 Y87.502 E.02757
G1 X164.084 Y88.278 E.02771
G1 X164.329 Y89.062 E.02575
G1 X164.446 Y90.104 E.03288
G1 X164.446 Y119.929 E.93514
G1 X164.351 Y120.863 E.02944
G1 X164.084 Y121.719 E.02811
G1 X163.661 Y122.496 E.02774
G1 X163.101 Y123.174 E.02757
G1 X162.424 Y123.734 E.02755
G1 X161.648 Y124.157 E.02771
G1 X160.792 Y124.424 E.02811
G1 X160.576 Y124.446 E.00681
M204 S1000
;WIPE_START
G1 F8640
G1 X160.516 Y124.452 E-.01392
G1 X159.86 Y124.519 E-.15226
G1 X157.115 Y124.519 E-.63382
;WIPE_END
G1 Z.6 F720
G1 X163.103 Y104.644 F10800
G1 Z.2 F720
G1 E.8 F2100
M204 S800
;TYPE:Perimeter
;WIDTH:0.463987
G1 F1200
G1 X163.095 Y104.654 E.00045
;WIDTH:0.465031
G1 X163.018 Y104.699 E.00313
;WIDTH:0.510062
G1 X162.941 Y104.744 E.00346
;WIDTH:0.555093
G1 X162.865 Y104.789 E.00376
;WIDTH:0.600124
G1 X162.788 Y104.834 E.00413
G1 X162.585 Y104.829 E.00941
;WIDTH:0.588949
G1 X155.106 Y104.829 E.33957
;WIDTH:0.588757
G1 X154.849 Y104.808 E.0117
;WIDTH:0.546568
G1 X154.592 Y104.787 E.0108
;WIDTH:0.504378
G1 X154.335 Y104.766 E.00989
;WIDTH:0.462189
G1 X154.078 Y104.744 E.00899
G1 X153.821 Y104.766 E.00899
;WIDTH:0.504352
G1 X153.565 Y104.787 E.00986
;WIDTH:0.546528
G1 X153.308 Y104.808 E.0108
;WIDTH:0.588704
G1 X153.051 Y104.829 E.0117
G1 X151.507 Y104.829 E.07007
G1 X151.4 Y104.759 E.0058
;WIDTH:0.546499
G1 X151.293 Y104.689 E.00535
;WIDTH:0.504332
G1 X151.186 Y104.619 E.00491
;WIDTH:0.462166
G1 X151.079 Y104.549 E.00446
;WIDTH:0.446797
G1 X150.944 Y104.316 E.00904
;WIDTH:0.483924
G1 X150.748 Y103.585 E.02775
;WIDTH:0.488382
G1 X150.644 Y103.092 E.01866
G1 X150.434 Y101.848 E.04673
;WIDTH:0.486725
G1 X150.341 Y101.023 E.03064
;WIDTH:0.483584
G1 X150.273 Y100.174 E.03121
;WIDTH:0.490511
G1 X150.208 Y98.539 E.0609
;WIDTH:0.489912
G1 X150.208 Y96.907 E.06066
;WIDTH:0.490753
G1 X150.252 Y95.284 E.06046
;WIDTH:0.493073
G1 X150.415 Y90.889 E.16462
;WIDTH:0.497326
G1 X150.425 Y89.791 E.04149
G1 X150.415 Y89.028 E.02883
;WIDTH:0.49052
G1 X150.354 Y87.907 E.04178
;WIDTH:0.489583
G1 X150.303 Y87.176 E.02722
;WIDTH:0.494396
G1 X150.301 Y87.09 E.00323
G1 X150.39 Y86.925 E.00704
;WIDTH:0.457198
G1 X150.479 Y86.76 E.00646
;WIDTH:0.463529
G1 X150.557 Y86.693 E.0036
;WIDTH:0.507059
G1 X150.634 Y86.626 E.00394
;WIDTH:0.550589
G1 X150.712 Y86.559 E.00434
;WIDTH:0.594118
G1 X150.789 Y86.493 E.00465
G1 X150.902 Y86.486 E.00519
;WIDTH:0.587137
G1 X159.823 Y86.483 E.40369
;WIDTH:0.590601
G1 X160.608 Y86.572 E.03598
;WIDTH:0.595623
G1 X161.256 Y86.786 E.03136
G1 X161.642 Y86.967 E.01959
;WIDTH:0.579083
G1 X162.229 Y87.389 E.03223
;WIDTH:0.584814
G1 X162.815 Y88.05 E.0398
;WIDTH:0.595301
G1 X163.149 Y88.688 E.03308
G1 X163.276 Y89.015 E.01611
;WIDTH:0.57847
G1 X163.421 Y89.719 E.03201
;WIDTH:0.58702
G1 X163.441 Y90.104 E.01744
;WIDTH:0.588956
G1 X163.438 Y104.179 E.63905
;WIDTH:0.595949
G1 X163.432 Y104.291 E.00516
G1 X163.347 Y104.382 E.00573
;WIDTH:0.551962
G1 X163.263 Y104.472 E.00521
;WIDTH:0.507974
G1 X163.179 Y104.563 E.00479
;WIDTH:0.463987
G1 X163.144 Y104.6 E.00178
M204 S1000
G1 X162.89 Y104.337 F10800
M204 S800
;TYPE:External perimeter
;WIDTH:0.419999
G1 F1200
G1 X162.585 Y104.367 E.00961
G1 X151.507 Y104.368 E.34734
G1 X151.342 Y104.27 E.00602
M73 P4 R18
M73 Q3 S19
G1 X151.145 Y103.489 E.02525
G1 X150.973 Y102.648 E.02691
G1 X150.84 Y101.785 E.02738
G1 X150.747 Y100.977 E.0255
G1 X150.682 Y100.166 E.02551
G1 X150.618 Y98.547 E.0508
G1 X150.619 Y96.918 E.05108
G1 X150.663 Y95.3 E.05075
G1 X150.824 Y91.145 E.13037
G1 X150.841 Y89.796 E.0423
G1 X150.827 Y89.021 E.0243
G1 X150.714 Y87.148 E.05883
G1 X150.761 Y87.01 E.00457
G1 X150.902 Y86.947 E.00484
G1 X159.884 Y86.943 E.28162
G1 X160.546 Y87.03 E.02093
G1 X161.375 Y87.338 E.02773
G1 X161.963 Y87.76 E.02269
G1 X162.463 Y88.345 E.02413
G1 X162.83 Y89.108 E.02655
G1 X162.976 Y89.812 E.02254
G1 X162.976 Y104.178 E.45044
G1 X162.919 Y104.284 E.00377
M73 Q4 S19
M204 S1000
;WIPE_START
G1 F8640
G1 X162.89 Y104.337 E-.01395
G1 X162.585 Y104.367 E-.07077
G1 X159.487 Y104.367 E-.71528
;WIPE_END
G1 Z.6 F720
G1 X152.43 Y122.783 F10800
G1 Z.2 F720
G1 E.8 F2100
M204 S800
;TYPE:Perimeter
G1 F1200
G1 X152.351 Y123 E.00724
G1 X151.996 Y123.219 E.01308
G1 X151.898 Y123.227 E.00308
G1 X142.941 Y123.227 E.28084
G1 X142.485 Y122.996 E.01603
G1 X142.382 Y122.748 E.00842
G1 X142.522 Y121.609 E.03598
G1 X142.734 Y120.144 E.04641
G1 X142.989 Y117.879 E.07147
G1 X143.732 Y109.405 E.26672
G1 X143.931 Y107.641 E.05566
G1 X144.192 Y105.939 E.05399
G1 X144.267 Y105.732 E.0069
;WIDTH:0.463514
G1 X144.36 Y105.644 E.00448
;WIDTH:0.507029
G1 X144.453 Y105.557 E.00491
;WIDTH:0.550544
G1 X144.546 Y105.469 E.0054
;WIDTH:0.594058
G1 X144.639 Y105.382 E.00584
G1 X144.751 Y105.375 E.00514
;WIDTH:0.587077
G1 X149.817 Y105.376 E.22922
;WIDTH:0.586269
G1 X150.029 Y105.397 E.00962
;WIDTH:0.544702
G1 X150.241 Y105.417 E.00888
;WIDTH:0.503134
G1 X150.452 Y105.438 E.00811
;WIDTH:0.461567
G1 X150.664 Y105.459 E.00742
;WIDTH:0.462166
G1 X150.875 Y105.438 E.00739
;WIDTH:0.504332
G1 X151.085 Y105.417 E.0081
;WIDTH:0.546499
G1 X151.296 Y105.396 E.00888
;WIDTH:0.588665
G1 X151.507 Y105.375 E.00962
;WIDTH:0.588704
G1 X153.051 Y105.375 E.07007
G1 X153.171 Y105.463 E.00675
;WIDTH:0.546528
G1 X153.291 Y105.551 E.00623
;WIDTH:0.504352
G1 X153.411 Y105.639 E.00571
;WIDTH:0.462176
G1 X153.532 Y105.727 E.00522
;WIDTH:0.419999
G1 X153.615 Y105.983 E.00844
G1 X153.699 Y107.111 E.03547
G1 X153.71 Y108.287 E.03687
G1 X153.679 Y109.317 E.03231
G1 X153.606 Y110.518 E.03773
G1 X153.377 Y113.06 E.08003
G1 X152.721 Y119.153 E.19215
G1 X152.574 Y120.848 E.05334
G1 X152.463 Y122.695 E.05802
G1 X152.451 Y122.727 E.00107
M204 S1000
G1 X152.086 Y122.673 F10800
M204 S800
;TYPE:External perimeter
G1 F1200
G1 X152.049 Y122.774 E.00337
G1 X151.898 Y122.85 E.0053
G1 X142.941 Y122.85 E.28084
G1 X142.769 Y122.738 E.00644
G1 X142.755 Y122.634 E.00329
G1 X143.108 Y120.192 E.07736
G1 X143.364 Y117.917 E.07178
G1 X144.106 Y109.448 E.26656
G1 X144.304 Y107.698 E.05522
G1 X144.565 Y105.996 E.05399
G1 X144.59 Y105.927 E.0023
G1 X144.751 Y105.836 E.0058
G1 X151.507 Y105.836 E.21183
G1 X153.051 Y105.836 E.04841
G1 X153.229 Y105.963 E.00686
G1 X153.323 Y107.139 E.03699
G1 X153.336 Y108.182 E.03271
G1 X153.302 Y109.305 E.03523
G1 X153.229 Y110.498 E.03748
G1 X153.003 Y113.017 E.0793
G1 X152.345 Y119.116 E.19234
G1 X152.198 Y120.82 E.05363
G1 X152.09 Y122.613 E.05632
M204 S1000
;WIPE_START
G1 F8640
G1 X152.086 Y122.673 E-.01388
G1 X152.049 Y122.774 E-.02484
G1 X151.898 Y122.85 E-.03903
G1 X148.77 Y122.85 E-.72225
;WIPE_END
G1 Z.6 F720
G1 X162.812 Y105.464 F10800
G1 Z.2 F720
G1 E.8 F2100
M204 S800
;TYPE:Perimeter
;WIDTH:0.555093
G1 F1200
G1 X162.857 Y105.506 E.00262
;WIDTH:0.510062
G1 X162.923 Y105.567 E.00349
;WIDTH:0.465031
G1 X162.988 Y105.627 E.0031
;WIDTH:0.419999
G1 X163.15 Y106.025 E.01347
G1 X163.15 Y119.95 E.43661
G1 X163.093 Y120.548 E.01883
G1 X162.912 Y121.168 E.02025
G1 X162.615 Y121.736 E.0201
G1 X162.226 Y122.223 E.01954
G1 X161.752 Y122.627 E.01953
G1 X161.197 Y122.941 E.01999
G1 X160.585 Y123.143 E.02021
G1 X159.817 Y123.224 E.02421
G1 X153.946 Y123.224 E.18408
G1 X153.494 Y122.998 E.01584
G1 X153.382 Y122.694 E.01016
G1 X153.382 Y122.623 E.00223
G1 X153.494 Y120.813 E.05686
G1 X153.64 Y119.142 E.05259
G1 X154.29 Y113.111 E.19019
G1 X154.516 Y110.595 E.0792
G1 X154.587 Y109.419 E.03694
G1 X154.623 Y108.307 E.03488
G1 X154.614 Y107.256 E.03295
G1 X154.541 Y106.059 E.0376
G1 X154.571 Y105.839 E.00696
G1 X154.625 Y105.727 E.0039
;WIDTH:0.463937
G1 X154.717 Y105.64 E.00443
;WIDTH:0.507875
G1 X154.809 Y105.554 E.00487
;WIDTH:0.551813
G1 X154.901 Y105.467 E.00536
;WIDTH:0.595751
G1 X154.993 Y105.381 E.00579
G1 X155.106 Y105.375 E.0052
;WIDTH:0.588949
G1 X162.585 Y105.375 E.33957
;WIDTH:0.600124
G1 X162.727 Y105.385 E.0066
M73 P5 R18
G1 X162.768 Y105.423 E.00259
M204 S1000
G1 X162.585 Y105.836 F10800
M204 S800
;TYPE:External perimeter
;WIDTH:0.419999
G1 F1200
G1 X162.719 Y105.892 E.00455
G1 X162.773 Y106.025 E.0045
G1 X162.773 Y119.95 E.43661
G1 X162.717 Y120.51 E.01765
G1 X162.551 Y121.056 E.01789
G1 X162.284 Y121.556 E.01777
G1 X161.935 Y121.983 E.01729
G1 X161.512 Y122.337 E.01729
G1 X161.017 Y122.61 E.01772
G1 X160.473 Y122.783 E.0179
G1 X159.896 Y122.846 E.0182
G1 X153.946 Y122.846 E.18656
G1 X153.772 Y122.729 E.00657
G1 X153.758 Y122.646 E.00264
G1 X153.87 Y120.836 E.05686
G1 X154.015 Y119.186 E.05193
G1 X154.665 Y113.148 E.19041
