; generated by PrusaSlicer 2.7.2+win64 on 2024-03-26 at 00:12:24 UTC


;
;
; 

; external perimeters extrusion width = 0.45mm
; perimeters extrusion width = 0.45mm
; infill extrusion width = 0.45mm
; solid infill extrusion width = 0.45mm
; top infill extrusion width = 0.40mm
; support material extrusion width = 0.35mm
; first layer extrusion width = 0.42mm

M73 P0 R195
M73 Q0 S195
M201 X1000 Y1000 Z200 E5000 ; sets maximum accelerations, mm/sec^2
M203 X200 Y200 Z12 E120 ; sets maximum feedrates, mm / sec
M204 S1250 T1250 ; sets acceleration (S) and retract acceleration (R), mm/sec^2
M205 X8.00 Y8.00 Z0.40 E4.50 ; sets the jerk limits, mm/sec
M205 S0 T0 ; sets the minimum extruding and travel feed rate, mm/sec

; printing object FurnNightst02a v5.stl_3 id:0 copy 0
; stop printing object FurnNightst02a v5.stl_3 id:0 copy 0

;TYPE:Custom
M862.3 P "MK3" ; printer model check
M862.1 P0.4 ; nozzle diameter check
M115 U3.13.3 ; tell printer latest fw version
G90 ; use absolute coordinates
M83 ; extruder relative mode
M104 S215 ; set extruder temp
M140 S60 ; set bed temp
M190 S60 ; wait for bed temp
M109 S215 ; wait for extruder temp
G28 W ; home all without mesh bed level
G80 X59.9344 Y39.9344 W130.131 H130.131 ; mesh bed levelling

G1 Z0.2 F720
G1 Y-3 F1000 ; go outside print area
G92 E0
G1 X60 E9 F1000 ; intro line
G1 X100 E12.5 F1000 ; intro line

G92 E0
M221 S95

; Don't change E values below. Excessive value can damage the printer.
M907 E430 ; set extruder motor current
G21 ; set units to millimeters
G90 ; use absolute coordinates
M83 ; use relative distances for extrusion

M900 K0.05 ; Filament gcode LA 1.5
M900 K30 ; Filament gcode LA 1.0




M107
;LAYER_CHANGE
;Z:0.2
;HEIGHT:0.2
G1 E-.8 F2100
G1 Z.6 F720
G1 X60.515 Y41.193 F10800
G1 Z.2 F720
G1 E.8 F2100
M204 S800
;TYPE:Skirt/Brim
;WIDTH:0.42
G1 F1200
G1 X61.56 Y40.317 E.04275
G1 X62.5 Y40.123 E.03009
G1 X187.5 Y40.123 E3.91929
G1 X188.807 Y40.515 E.04278
M73 P0 R194
G1 X189.683 Y41.56 E.04275
G1 X189.877 Y42.5 E.03009
G1 X189.877 Y167.5 E3.91929
G1 X189.485 Y168.807 E.04278
G1 X188.44 Y169.683 E.04275
G1 X187.5 Y169.877 E.03009
G1 X62.5 Y169.877 E3.91929
G1 X61.193 Y169.485 E.04278
G1 X60.317 Y168.44 E.04275
G1 X60.123 Y167.5 E.03009
G1 X60.123 Y42.5 E3.91929
G1 X60.497 Y41.25 E.04091
M204 S1000
; printing object FurnNightst02a v5.stl_3 id:0 copy 0
;WIPE_START
G1 F8640
G1 X60.515 Y41.193 E-.0138
G1 X61.56 Y40.317 E-.31486
G1 X62.5 Y40.123 E-.22162
G1 X63.581 Y40.123 E-.24972
;WIPE_END
G1 Z.6 F720
G1 X186.713 Y166.713 F10800
G1 Z.2 F720
G1 E.8 F2100
M204 S800
;TYPE:Perimeter
;WIDTH:0.419999
G1 F1200
G1 X63.287 Y166.713 E3.86993
G1 X63.287 Y43.287 E3.86993
G1 X186.713 Y43.287 E3.86993
G1 X186.713 Y105 E1.93496
G1 X186.713 Y166.653 E1.93308
M73 Q0 S194
M204 S1000
G1 X187.09 Y167.09 F10800
M204 S800
;TYPE:External perimeter
G1 F1200
G1 X62.91 Y167.09 E3.89357
G1 X62.91 Y42.91 E3.89357
G1 X187.09 Y42.91 E3.89357
G1 X187.09 Y105 E1.94679
M73 P0 R193
G1 X187.09 Y167.03 E1.9449
M204 S1000
;WIPE_START
G1 F8640
G1 X187.09 Y167.09 E-.01385
G1 X183.685 Y167.09 E-.78615
;WIPE_END
G1 Z.6 F720
G1 X186.543 Y44.22 F10800
G1 Z.2 F720
G1 E.8 F2100
M204 S800
;TYPE:Solid infill
;WIDTH:0.420629
G1 F1200
G1 X185.949 Y43.626 E.02638
G1 X185.415 Y43.626 E.01677
G1 X186.374 Y44.585 E.04259
G1 X186.374 Y45.119 E.01677
G1 X184.881 Y43.626 E.06631
G1 X184.347 Y43.626 E.01677
G1 X186.374 Y45.653 E.09003
G1 X186.374 Y46.187 E.01677
G1 X183.813 Y43.626 E.11375
G1 X183.279 Y43.626 E.01677
G1 X186.374 Y46.721 E.13747
G1 X186.374 Y47.256 E.0168
G1 X182.744 Y43.626 E.16123
G1 X182.21 Y43.626 E.01677
G1 X186.374 Y47.79 E.18495
G1 X186.374 Y48.324 E.01677
G1 X181.676 Y43.626 E.20866
G1 X181.142 Y43.626 E.01677
G1 X186.374 Y48.858 E.23238
G1 X186.374 Y49.392 E.01677
G1 X180.608 Y43.626 E.2561
G1 X180.074 Y43.626 E.01677
G1 X186.374 Y49.926 E.27982
G1 X186.374 Y50.461 E.0168
G1 X179.539 Y43.626 E.30358
G1 X179.005 Y43.626 E.01677
G1 X186.374 Y50.995 E.3273
G1 X186.374 Y51.529 E.01677
G1 X178.471 Y43.626 E.35102
G1 X177.937 Y43.626 E.01677
G1 X186.374 Y52.063 E.37474
G1 X186.374 Y52.597 E.01677
G1 X177.403 Y43.626 E.39845
G1 X176.869 Y43.626 E.01677
G1 X186.374 Y53.131 E.42217
G1 X186.374 Y53.666 E.0168
G1 X176.334 Y43.626 E.44593
G1 X175.8 Y43.626 E.01677
G1 X186.374 Y54.2 E.46965
G1 X186.374 Y54.734 E.01677
G1 X175.266 Y43.626 E.49337
G1 X174.732 Y43.626 E.01677
G1 X186.374 Y55.268 E.51709
G1 X186.374 Y55.802 E.01677
G1 X174.198 Y43.626 E.54081
G1 X173.664 Y43.626 E.01677
G1 X186.374 Y56.336 E.56452
G1 X186.374 Y56.871 E.0168
G1 X173.129 Y43.626 E.58829
G1 X172.595 Y43.626 E.01677
G1 X186.374 Y57.405 E.612
G1 X186.374 Y57.939 E.01677
G1 X172.061 Y43.626 E.63572
G1 X171.527 Y43.626 E.01677
G1 X186.374 Y58.473 E.65944
G1 X186.374 Y59.007 E.01677
G1 X170.993 Y43.626 E.68316
G1 X170.459 Y43.626 E.01677
G1 X186.374 Y59.541 E.70688
G1 X186.374 Y60.076 E.0168
G1 X169.924 Y43.626 E.73064
G1 X169.39 Y43.626 E.01677
G1 X186.374 Y60.61 E.75436
G1 X186.374 Y61.144 E.01677
G1 X168.856 Y43.626 E.77807
G1 X168.322 Y43.626 E.01677
G1 X186.374 Y61.678 E.80179
G1 X186.374 Y62.212 E.01677
G1 X167.788 Y43.626 E.82551
G1 X167.254 Y43.626 E.01677
G1 X186.374 Y62.746 E.84923
G1 X186.374 Y63.28 E.01677
G1 X166.72 Y43.626 E.87295
G1 X166.185 Y43.626 E.0168
G1 X186.374 Y63.815 E.89671
G1 X186.374 Y64.349 E.01677
G1 X165.651 Y43.626 E.92043
G1 X165.117 Y43.626 E.01677
M73 Q0 S193
G1 X186.374 Y64.883 E.94414
G1 X186.374 Y65.417 E.01677
M73 P1 R193
M73 Q1 S193
G1 X164.583 Y43.626 E.96786
G1 X164.049 Y43.626 E.01677
G1 X186.374 Y65.951 E.99158
G1 X186.374 Y66.485 E.01677
G1 X163.515 Y43.626 E1.0153
G1 X162.98 Y43.626 E.0168
G1 X186.374 Y67.02 E1.03906
G1 X186.374 Y67.554 E.01677
G1 X162.446 Y43.626 E1.06278
G1 X161.912 Y43.626 E.01677
G1 X186.374 Y68.088 E1.0865
G1 X186.374 Y68.622 E.01677
G1 X161.378 Y43.626 E1.11021
G1 X160.844 Y43.626 E.01677
G1 X186.374 Y69.156 E1.13393
G1 X186.374 Y69.69 E.01677
G1 X160.31 Y43.626 E1.15765
G1 X159.775 Y43.626 E.0168
G1 X186.374 Y70.225 E1.18141
G1 X186.374 Y70.759 E.01677
M73 P1 R192
G1 X159.241 Y43.626 E1.20513
G1 X158.707 Y43.626 E.01677
G1 X186.374 Y71.293 E1.22885
G1 X186.374 Y71.827 E.01677
G1 X158.173 Y43.626 E1.25257
G1 X157.639 Y43.626 E.01677
G1 X186.374 Y72.361 E1.27628
G1 X186.374 Y72.895 E.01677
G1 X157.105 Y43.626 E1.3
G1 X156.57 Y43.626 E.0168
G1 X186.374 Y73.43 E1.32377
G1 X186.374 Y73.964 E.01677
G1 X156.036 Y43.626 E1.34748
G1 X155.502 Y43.626 E.01677
G1 X186.374 Y74.498 E1.3712
G1 X186.374 Y75.032 E.01677
G1 X154.968 Y43.626 E1.39492
G1 X154.434 Y43.626 E.01677
G1 X186.374 Y75.566 E1.41864
G1 X186.374 Y76.1 E.01677
G1 X153.9 Y43.626 E1.44235
G1 X153.365 Y43.626 E.0168
G1 X186.374 Y76.635 E1.46612
G1 X186.374 Y77.169 E.01677
G1 X152.831 Y43.626 E1.48984
G1 X152.297 Y43.626 E.01677
G1 X186.374 Y77.703 E1.51355
G1 X186.374 Y78.237 E.01677
G1 X151.763 Y43.626 E1.53727
G1 X151.229 Y43.626 E.01677
G1 X186.374 Y78.771 E1.56099
G1 X186.374 Y79.305 E.01677
G1 X150.695 Y43.626 E1.58471
G1 X150.161 Y43.626 E.01677
G1 X186.374 Y79.839 E1.60843
G1 X186.374 Y80.374 E.0168
M73 Q1 S192
G1 X149.626 Y43.626 E1.63219
G1 X149.092 Y43.626 E.01677
G1 X186.374 Y80.908 E1.65591
G1 X186.374 Y81.442 E.01677
G1 X148.558 Y43.626 E1.67962
G1 X148.024 Y43.626 E.01677
G1 X186.374 Y81.976 E1.70334
G1 X186.374 Y82.51 E.01677
G1 X147.49 Y43.626 E1.72706
G1 X146.956 Y43.626 E.01677
G1 X186.374 Y83.044 E1.75078
G1 X186.374 Y83.579 E.0168
G1 X146.421 Y43.626 E1.77454
G1 X145.887 Y43.626 E.01677
M73 P1 R191
G1 X186.374 Y84.113 E1.79826
G1 X186.374 Y84.647 E.01677
G1 X145.353 Y43.626 E1.82198
G1 X144.819 Y43.626 E.01677
G1 X186.374 Y85.181 E1.84569
G1 X186.374 Y85.715 E.01677
G1 X144.285 Y43.626 E1.86941
G1 X143.751 Y43.626 E.01677
G1 X186.374 Y86.249 E1.89313
G1 X186.374 Y86.784 E.0168
G1 X143.216 Y43.626 E1.91689
G1 X142.682 Y43.626 E.01677
G1 X186.374 Y87.318 E1.94061
G1 X186.374 Y87.852 E.01677
G1 X142.148 Y43.626 E1.96433
G1 X141.614 Y43.626 E.01677
G1 X186.374 Y88.386 E1.98805
G1 X186.374 Y88.92 E.01677
G1 X141.08 Y43.626 E2.01176
G1 X140.546 Y43.626 E.01677
G1 X186.374 Y89.454 E2.03548
G1 X186.374 Y89.989 E.0168
G1 X140.011 Y43.626 E2.05924
G1 X139.477 Y43.626 E.01677
G1 X186.374 Y90.523 E2.08296
G1 X186.374 Y91.057 E.01677
M73 P2 R191
M73 Q2 S191
G1 X138.943 Y43.626 E2.10668
G1 X138.409 Y43.626 E.01677
G1 X186.374 Y91.591 E2.1304
G1 X186.374 Y92.125 E.01677
G1 X137.875 Y43.626 E2.15412
G1 X137.341 Y43.626 E.01677
G1 X186.374 Y92.659 E2.17783
G1 X186.374 Y93.194 E.0168
G1 X136.806 Y43.626 E2.2016
G1 X136.272 Y43.626 E.01677
G1 X186.374 Y93.728 E2.22531
G1 X186.374 Y94.262 E.01677
M73 P2 R190
G1 X135.738 Y43.626 E2.24903
G1 X135.204 Y43.626 E.01677
G1 X186.374 Y94.796 E2.27275
G1 X186.374 Y95.33 E.01677
G1 X134.67 Y43.626 E2.29647
G1 X134.136 Y43.626 E.01677
G1 X186.374 Y95.864 E2.32019
G1 X186.374 Y96.398 E.01677
G1 X133.602 Y43.626 E2.3439
G1 X133.067 Y43.626 E.0168
G1 X186.374 Y96.933 E2.36767
G1 X186.374 Y97.467 E.01677
G1 X132.533 Y43.626 E2.39138
G1 X131.999 Y43.626 E.01677
G1 X186.374 Y98.001 E2.4151
G1 X186.374 Y98.535 E.01677
G1 X131.465 Y43.626 E2.43882
G1 X130.931 Y43.626 E.01677
G1 X186.374 Y99.069 E2.46254
G1 X186.374 Y99.603 E.01677
G1 X130.397 Y43.626 E2.48626
G1 X129.862 Y43.626 E.0168
M73 Q2 S190
G1 X186.374 Y100.138 E2.51002
G1 X186.374 Y100.672 E.01677
G1 X129.328 Y43.626 E2.53374
G1 X128.794 Y43.626 E.01677
G1 X186.374 Y101.206 E2.55746
G1 X186.374 Y101.74 E.01677
G1 X128.26 Y43.626 E2.58117
G1 X127.726 Y43.626 E.01677
M73 P2 R189
G1 X186.374 Y102.274 E2.60489
G1 X186.374 Y102.808 E.01677
G1 X127.192 Y43.626 E2.62861
G1 X126.657 Y43.626 E.0168
G1 X186.374 Y103.343 E2.65237
G1 X186.374 Y103.877 E.01677
G1 X126.123 Y43.626 E2.67609
G1 X125.589 Y43.626 E.01677
G1 X186.374 Y104.411 E2.69981
G1 X186.374 Y104.945 E.01677
G1 X125.055 Y43.626 E2.72353
G1 X124.521 Y43.626 E.01677
G1 X186.374 Y105.479 E2.74724
G1 X186.374 Y106.013 E.01677
G1 X123.987 Y43.626 E2.77096
G1 X123.452 Y43.626 E.0168
G1 X186.374 Y106.548 E2.79472
G1 X186.374 Y107.082 E.01677
M73 P3 R189
M73 Q3 S190
G1 X122.918 Y43.626 E2.81844
G1 X122.384 Y43.626 E.01677
M73 Q3 S189
G1 X186.374 Y107.616 E2.84216
G1 X186.374 Y108.15 E.01677
G1 X121.85 Y43.626 E2.86588
G1 X121.316 Y43.626 E.01677
G1 X186.374 Y108.684 E2.8896
G1 X186.374 Y109.218 E.01677
G1 X120.782 Y43.626 E2.91331
G1 X120.247 Y43.626 E.0168
M73 P3 R188
G1 X186.374 Y109.753 E2.93708
G1 X186.374 Y110.287 E.01677
G1 X119.713 Y43.626 E2.96079
G1 X119.179 Y43.626 E.01677
G1 X186.374 Y110.821 E2.98451
G1 X186.374 Y111.355 E.01677
G1 X118.645 Y43.626 E3.00823
G1 X118.111 Y43.626 E.01677
G1 X186.374 Y111.889 E3.03195
G1 X186.374 Y112.423 E.01677
G1 X117.577 Y43.626 E3.05567
G1 X117.043 Y43.626 E.01677
G1 X186.374 Y112.957 E3.07938
G1 X186.374 Y113.492 E.0168
G1 X116.508 Y43.626 E3.10315
G1 X115.974 Y43.626 E.01677
M73 Q3 S188
G1 X186.374 Y114.026 E3.12686
G1 X186.374 Y114.56 E.01677
G1 X115.44 Y43.626 E3.15058
G1 X114.906 Y43.626 E.01677
G1 X186.374 Y115.094 E3.1743
G1 X186.374 Y115.628 E.01677
G1 X114.372 Y43.626 E3.19802
G1 X113.838 Y43.626 E.01677
M73 P3 R187
G1 X186.374 Y116.162 E3.22174
G1 X186.374 Y116.697 E.0168
G1 X113.303 Y43.626 E3.2455
G1 X112.769 Y43.626 E.01677
G1 X186.374 Y117.231 E3.26922
G1 X186.374 Y117.765 E.01677
G1 X112.235 Y43.626 E3.29293
G1 X111.701 Y43.626 E.01677
G1 X186.374 Y118.299 E3.31665
G1 X186.374 Y118.833 E.01677
G1 X111.167 Y43.626 E3.34037
G1 X110.633 Y43.626 E.01677
G1 X186.374 Y119.367 E3.36409
G1 X186.374 Y119.902 E.0168
M73 P4 R187
M73 Q4 S188
G1 X110.098 Y43.626 E3.38785
G1 X109.564 Y43.626 E.01677
M73 Q4 S187
G1 X186.374 Y120.436 E3.41157
G1 X186.374 Y120.97 E.01677
G1 X109.03 Y43.626 E3.43529
G1 X108.496 Y43.626 E.01677
G1 X186.374 Y121.504 E3.459
G1 X186.374 Y122.038 E.01677
M73 P4 R186
G1 X107.962 Y43.626 E3.48272
G1 X107.428 Y43.626 E.01677
G1 X186.374 Y122.572 E3.50644
G1 X186.374 Y123.107 E.0168
G1 X106.893 Y43.626 E3.5302
G1 X106.359 Y43.626 E.01677
G1 X186.374 Y123.641 E3.55392
G1 X186.374 Y124.175 E.01677
G1 X105.825 Y43.626 E3.57764
G1 X105.291 Y43.626 E.01677
G1 X186.374 Y124.709 E3.60136
G1 X186.374 Y125.243 E.01677
G1 X104.757 Y43.626 E3.62507
G1 X104.223 Y43.626 E.01677
G1 X186.374 Y125.777 E3.64879
G1 X186.374 Y126.312 E.0168
M73 Q4 S186
G1 X103.688 Y43.626 E3.67256
G1 X103.154 Y43.626 E.01677
G1 X186.374 Y126.846 E3.69627
G1 X186.374 Y127.38 E.01677
G1 X102.62 Y43.626 E3.71999
G1 X102.086 Y43.626 E.01677
M73 P4 R185
G1 X186.374 Y127.914 E3.74371
G1 X186.374 Y128.448 E.01677
G1 X101.552 Y43.626 E3.76743
G1 X101.018 Y43.626 E.01677
G1 X186.374 Y128.982 E3.79115
G1 X186.374 Y129.516 E.01677
G1 X100.484 Y43.626 E3.81486
G1 X99.949 Y43.626 E.0168
G1 X186.374 Y130.051 E3.83863
G1 X186.374 Y130.585 E.01677
M73 P5 R185
M73 Q5 S186
G1 X99.415 Y43.626 E3.86234
G1 X98.881 Y43.626 E.01677
G1 X186.374 Y131.119 E3.88606
M73 Q5 S185
G1 X186.374 Y131.653 E.01677
G1 X98.347 Y43.626 E3.90978
G1 X97.813 Y43.626 E.01677
G1 X186.374 Y132.187 E3.9335
G1 X186.374 Y132.721 E.01677
M73 P5 R184
G1 X97.279 Y43.626 E3.95722
G1 X96.744 Y43.626 E.0168
G1 X186.374 Y133.256 E3.98098
G1 X186.374 Y133.79 E.01677
G1 X96.21 Y43.626 E4.0047
G1 X95.676 Y43.626 E.01677
G1 X186.374 Y134.324 E4.02841
G1 X186.374 Y134.858 E.01677
G1 X95.142 Y43.626 E4.05213
G1 X94.608 Y43.626 E.01677
G1 X186.374 Y135.392 E4.07585
G1 X186.374 Y135.926 E.01677
G1 X94.074 Y43.626 E4.09957
G1 X93.539 Y43.626 E.0168
M73 Q5 S184
G1 X186.374 Y136.461 E4.12333
G1 X186.374 Y136.995 E.01677
G1 X93.005 Y43.626 E4.14705
G1 X92.471 Y43.626 E.01677
G1 X186.374 Y137.529 E4.17077
G1 X186.374 Y138.063 E.01677
M73 P5 R183
G1 X91.937 Y43.626 E4.19448
G1 X91.403 Y43.626 E.01677
G1 X186.374 Y138.597 E4.2182
G1 X186.374 Y139.131 E.01677
G1 X90.869 Y43.626 E4.24192
G1 X90.334 Y43.626 E.0168
G1 X186.374 Y139.666 E4.26568
G1 X186.374 Y140.2 E.01677
M73 P6 R183
M73 Q6 S184
G1 X89.8 Y43.626 E4.2894
G1 X89.266 Y43.626 E.01677
G1 X186.374 Y140.734 E4.31312
G1 X186.374 Y141.268 E.01677
M73 Q6 S183
G1 X88.732 Y43.626 E4.33684
G1 X88.198 Y43.626 E.01677
G1 X186.374 Y141.802 E4.36055
G1 X186.374 Y142.336 E.01677
M73 P6 R182
G1 X87.664 Y43.626 E4.38427
G1 X87.13 Y43.626 E.01677
G1 X186.374 Y142.871 E4.40801
G1 X186.374 Y143.405 E.01677
G1 X86.595 Y43.626 E4.43175
G1 X86.061 Y43.626 E.01677
G1 X186.374 Y143.939 E4.45547
G1 X186.374 Y144.473 E.01677
G1 X85.527 Y43.626 E4.47919
G1 X84.993 Y43.626 E.01677
G1 X186.374 Y145.007 E4.50291
G1 X186.374 Y145.541 E.01677
M73 Q6 S182
G1 X84.459 Y43.626 E4.52662
G1 X83.925 Y43.626 E.01677
G1 X186.374 Y146.075 E4.55034
G1 X186.374 Y146.61 E.0168
G1 X83.39 Y43.626 E4.5741
G1 X82.856 Y43.626 E.01677
M73 P6 R181
G1 X186.374 Y147.144 E4.59782
G1 X186.374 Y147.678 E.01677
G1 X82.322 Y43.626 E4.62154
G1 X81.788 Y43.626 E.01677
G1 X186.374 Y148.212 E4.64526
G1 X186.374 Y148.746 E.01677
M73 P7 R181
G1 X81.254 Y43.626 E4.66898
G1 X80.72 Y43.626 E.01677
M73 Q7 S182
G1 X186.374 Y149.28 E4.69269
G1 X186.374 Y149.815 E.0168
M73 Q7 S181
G1 X80.185 Y43.626 E4.71646
G1 X79.651 Y43.626 E.01677
G1 X186.374 Y150.349 E4.74018
G1 X186.374 Y150.883 E.01677
G1 X79.117 Y43.626 E4.76389
G1 X78.583 Y43.626 E.01677
M73 P7 R180
G1 X186.374 Y151.417 E4.78761
G1 X186.374 Y151.951 E.01677
G1 X78.049 Y43.626 E4.81133
G1 X77.515 Y43.626 E.01677
G1 X186.374 Y152.485 E4.83505
G1 X186.374 Y153.02 E.0168
G1 X76.98 Y43.626 E4.85881
G1 X76.446 Y43.626 E.01677
G1 X186.374 Y153.554 E4.88253
G1 X186.374 Y154.088 E.01677
M73 Q7 S180
G1 X75.912 Y43.626 E4.90625
G1 X75.378 Y43.626 E.01677
G1 X186.374 Y154.622 E4.92996
G1 X186.374 Y155.156 E.01677
G1 X74.844 Y43.626 E4.95368
G1 X74.31 Y43.626 E.01677
M73 P7 R179
G1 X186.374 Y155.69 E4.9774
G1 X186.374 Y156.225 E.0168
G1 X73.775 Y43.626 E5.00116
G1 X73.241 Y43.626 E.01677
G1 X186.374 Y156.759 E5.02488
G1 X186.374 Y157.293 E.01677
M73 P8 R179
M73 Q8 S180
G1 X72.707 Y43.626 E5.0486
G1 X72.173 Y43.626 E.01677
G1 X186.374 Y157.827 E5.07232
G1 X186.374 Y158.361 E.01677
M73 Q8 S179
G1 X71.639 Y43.626 E5.09603
G1 X71.105 Y43.626 E.01677
G1 X186.374 Y158.895 E5.11975
G1 X186.374 Y159.43 E.0168
M73 P8 R178
G1 X70.571 Y43.626 E5.14349
G1 X70.036 Y43.626 E.0168
